X:97
T:Reel 97
M:4/4
K:Gmaj
L:1/8
dc|BGAF GFEF|FGFA GBcA|B>G (3GFG BAFA|GBAF G2:|BA|GFGA BABd|cABG AcdA|GFGA Bcdg| (3fga fa g2dB|Gggf gdBG|FGAB cAFA|GABc dBfa|gfaf g2|d2|gdBd gdBG|FGAG FAdc|Bdgd  (3Bcd gd|BcAF G2 (3def |gdBd gdBG|FGAB cdef|gfaf cdec| (3Bcd AF G2|
